!!!COM:	Du Fay, Guillaume
!!!CDT:	~1397/08/05/-1474/11/27
!!!OPR:	Missa Ave regina celorum
!!!ONM:	3
!!!OTL:	Credo
!!!AGN:	Mass; Credo
!!!SCT:	Duf1002c
!!!SCA:	Duf1002c
!!!voices:	4
!!!voices-OPR:	4
**kern	**text	**kern	**text	**kern	**text	**kern	**text
*staff4	*staff4	*staff3	*staff3	*staff2	*staff2	*staff1	*staff1
*Ivox	*	*Ivox	*	*Ivox	*	*Ivox	*
*I"Bassus	*	*I"Tenor	*	*I"Contratenor	*	*I"Cantus	*
*I'B	*	*I'T	*	*I'Ct	*	*I'Cn	*
*>[A,B,C,D]	*>[A,B,C,D]	*>[A,B,C,D]	*>[A,B,C,D]	*>[A,B,C,D]	*>[A,B,C,D]	*>[A,B,C,D]	*>[A,B,C,D]
*>A	*>A	*>A	*>A	*>A	*>A	*>A	*>A
*clefF4	*	*clefGv2	*	*clefGv2	*	*clefG2	*
*k[]	*	*k[b-]	*	*k[]	*	*k[]	*
*M3/1	*	*M3/1	*	*M3/1	*	*M3/1	*
*met(O)	*	*met(O)	*	*met(O)	*	*met(O)	*
!!section: Patrem
!!!OMD: Patrem
=1-	=1-	=1-	=1-	=1-	=1-	=1-	=1-
0F	A-	0.r	.	0f	Pa-	1.cc	Pa-
.	.	.	.	.	.	2b\	.
1F	.	.	.	1c	-trem	1a	-trem
=2	=2	=2	=2	=2	=2	=2	=2
1E-	.	0.r	.	1c	om-	1g	om-
1.D	.	.	.	2.d\	-ni-	2f/	-ni-
.	.	.	.	.	.	2.a/	.
.	.	.	.	4c\	.	.	.
.	.	.	.	1A	-po-	.	.
.	.	.	.	.	.	4g/	.
2C/	.	.	.	.	.	2e/	.
=3	=3	=3	=3	=3	=3	=3	=3
1D	.	0.r	.	1A	-ten-	1f	-po-
1.E-	.	.	.	0G	-tem,	1.g	-ten-
2C/	.	.	.	.	.	2eni/	.
=4	=4	=4	=4	=4	=4	=4	=4
0.C	-ve,	0c	A-	2r	.	1e	-tem,
.	.	.	.	1g	fa-	.	.
.	.	.	.	.	.	2r	.
.	.	.	.	2f\	.	2a/	fa-
.	.	1c	.	1e	-cto-	2g/	.
.	.	.	.	.	.	2e/	.
=5	=5	=5	=5	=5	=5	=5	=5
0D	a-	1B-	.	2d\	.	2f/	-cto-
.	.	.	.	1f	.	2d/	.
.	.	1.A	.	.	.	2f/	.
.	.	.	.	2e\	.	2g/	.
2D\	.	.	.	1d	-rem	1a	-rem
2Eni\	.	2G/	.	.	.	.	.
=6	=6	=6	=6	=6	=6	=6	=6
1F	.	1A	.	1c	ce-	1a	ce-
0G	.	1.B-	.	2.g\	.	1d	.
.	.	.	.	4f\	.	.	.
.	.	.	.	1d	-li	[1g	-li
.	.	[2G/	.	.	.	.	.
=7	=7	=7	=7	=7	=7	=7	=7
1C	.	2G/]	.	1e	et	2g/]	.
.	.	2A/	.	.	.	2cc\	et
2E\	.	2G/	.	1c	ter-	2b\	ter-
2F\	.	1c	.	.	.	2a/	.
1D	.	.	.	1d 1f	.	4b/	.
.	.	.	.	.	.	4a/	.
.	.	2Bni\	.	.	.	4g/	.
.	.	.	.	.	.	4f/	.
=8	=8	=8	=8	=8	=8	=8	=8
[0.C	-ve,	[0.c	-ve,	1G 1g	-re,	0.e	-re,
.	.	.	.	1r	.	.	.
.	.	.	.	1g	vi-	.	.
=9	=9	=9	=9	=9	=9	=9	=9
0.C]	.	0.c]	.	1.g	-si-	1r	.
.	.	.	.	.	.	1g	vi-
.	.	.	.	1e	-bi-	.	.
.	.	.	.	.	.	1g	-si-
.	.	.	.	2e\	-li-	.	.
=10	=10	=10	=10	=10	=10	=10	=10
0.F	re-	0.r	.	1c	-um	2a/	-bi-
.	.	.	.	.	.	2a/	-li-
.	.	.	.	0f	om-	1a	-um
.	.	.	.	.	.	2a/	om-
.	.	.	.	.	.	2a/	-ni-
=11	=11	=11	=11	=11	=11	=11	=11
0.C	-gi-	[0.c	re-	2e\	-ni-	1g	-um
.	.	.	.	2f\	.	.	.
.	.	.	.	0g	-um	1.cc	et
.	.	.	.	.	.	2b\	.
=12	=12	=12	=12	=12	=12	=12	=12
1F	.	0.c]	.	1r	.	1a	in-
0E	.	.	.	1G	et	1g	-vi-
.	.	.	.	1G	in-	1g	-si-
=13	=13	=13	=13	=13	=13	=13	=13
0.D	.	0.d	-gi-	1A	-vi-	1.f	-bi-
.	.	.	.	2A/	-si-	.	.
.	.	.	.	1B	-bi-	2g/	.
.	.	.	.	.	.	2.f/	-li-
.	.	.	.	2B\	-li-	.	.
.	.	.	.	.	.	4e/	.
=14	=14	=14	=14	=14	=14	=14	=14
0.C	-na	0.e	.	0c	-um.	0g	-um.
.	.	.	.	1g	Et	1r	.
=15	=15	=15	=15	=15	=15	=15	=15
0c	ce-	[0.e	-na	2e\	in	1g	Et
.	.	.	.	2f\	.	.	.
.	.	.	.	1g	u-	1cc	in
2A\	.	.	.	1a	-num	2cc\	u-
2B\	.	.	.	.	.	2dd\	-num
=16	=16	=16	=16	=16	=16	=16	=16
0c	-lo-	0.e]	.	2g\	do-	1.ee	do-
.	.	.	.	2g\	-mi-	.	.
.	.	.	.	1g	-num	.	.
.	.	.	.	.	.	2.ee\	-mi-
1c	.	.	.	1r	.	.	.
.	.	.	.	.	.	4dd\	.
.	.	.	.	.	.	2cc\	.
=17	=17	=17	=17	=17	=17	=17	=17
0G	.	1d	ce-	2g\	Je-	0b	-num
.	.	.	.	2g\	-sum	.	.
.	.	0e	.	1g	Chri-	.	.
1G	.	.	.	1g	-stum,	1b	Je-
=18	=18	=18	=18	=18	=18	=18	=18
1.F	.	0.f	-lo-	0a	fi-	2a/	-sum
.	.	.	.	.	.	1dd	Chri-
2E\	.	.	.	.	.	2cc\	.
1D	.	.	.	1f	-li-	2a/	.
.	.	.	.	.	.	2b\	.
=19	=19	=19	=19	=19	=19	=19	=19
0.C	.	0.e	.	1g	-um	1cc	-stum,
.	.	.	.	1g	de-	2cc\	fi-
.	.	.	.	.	.	2cc\	-li-
.	.	.	.	1g	-i	1cc	-um
=20	=20	=20	=20	=20	=20	=20	=20
0.G	.	0.d	.	1r	.	2b\	de-
.	.	.	.	.	.	1dd	.
.	.	.	.	1g	u-	.	.
.	.	.	.	.	.	2cc\	.
.	.	.	.	1g	-ni-	1b	-i
=21	=21	=21	=21	=21	=21	=21	=21
0A	.	0c	.	1e	-ge-	2r	.
.	.	.	.	.	.	1ee	u-
.	.	.	.	1a	.	.	.
.	.	.	.	.	.	2cc\	.
1G	.	1B-	.	2d\	.	1dd	-ni-
.	.	.	.	2g\	.	.	.
=22	=22	=22	=22	=22	=22	=22	=22
1A	.	1c	.	2e\	-ni-	2cc\	-ge-
.	.	.	.	2f\	.	2a/	.
0G	.	0d	.	0g	-tum,	2cc\	.
.	.	.	.	.	.	1b	-ni-
.	.	.	.	.	.	2a/	.
=23	=23	=23	=23	=23	=23	=23	=23
[0.C	-rum.	[0.c	-rum.	2r	.	1.cc	-tum.
.	.	.	.	1e	u-	.	.
.	.	.	.	2f\	.	2a/	.
.	.	.	.	1g	-ni-	2cc\	.
.	.	.	.	.	.	2b\	.
=24	=24	=24	=24	=24	=24	=24	=24
0.C_	.	0.c]	.	1e	-ge-	1g	.
.	.	.	.	1c	-ni-	1r	.
.	.	.	.	1G 1g	-tum.	1r	.
=25	=25	=25	=25	=25	=25	=25	=25
0.C]	.	0.r	.	1r	.	2.c/	Et
.	.	.	.	.	.	4d/	.
.	.	.	.	1r	.	2e/	ex
.	.	.	.	.	.	2f/	.
.	.	.	.	2.c\	Et	1g	pa-
.	.	.	.	4d\	.	.	.
=26	=26	=26	=26	=26	=26	=26	=26
0.r	.	0.r	.	2e\	ex	2.c/	.
.	.	.	.	2f\	.	.	.
.	.	.	.	.	.	4d/	.
.	.	.	.	1g	pa-	2e/	.
.	.	.	.	.	.	1c	.
.	.	.	.	2c\	.	.	.
.	.	.	.	2d\	.	2B/	-tre
=27	=27	=27	=27	=27	=27	=27	=27
0.r	.	0.r	.	2e\	.	2c/	na-
.	.	.	.	1c	.	2e/	.
.	.	.	.	.	.	1d	.
.	.	.	.	2B\	-tre	.	.
.	.	.	.	2c\	na-	1c	-tum
.	.	.	.	2e\	.	.	.
=28	=28	=28	=28	=28	=28	=28	=28
0.r	.	0.r	.	1d	.	2r	.
.	.	.	.	.	.	2f/	an-
.	.	.	.	1c	-tum	2e/	-te
.	.	.	.	.	.	2g/	om-
.	.	.	.	2r	.	2a/	-ni-
.	.	.	.	2f\	an-	2a/	-a
=29	=29	=29	=29	=29	=29	=29	=29
0.r	.	0.r	.	2e\	-te	2.g/	se-
.	.	.	.	2g\	om-	.	.
.	.	.	.	.	.	4e/	.
.	.	.	.	2a\	-ni-	1f	-cu-
.	.	.	.	2a\	-a	.	.
.	.	.	.	2.g\	se-	1e	-la.
.	.	.	.	4e\	.	.	.
=30	=30	=30	=30	=30	=30	=30	=30
0.r	.	0.r	.	1f	-cu-	2r	.
.	.	.	.	.	.	2d/	De-
.	.	.	.	1e	-la.	2e/	-um
.	.	.	.	.	.	2g/	de
.	.	.	.	2r	.	2.f/	de-
.	.	.	.	2d\	De-	.	.
.	.	.	.	.	.	4e/	.
=31	=31	=31	=31	=31	=31	=31	=31
0.r	.	0.r	.	2e\	-um	1c	-o.
.	.	.	.	2g\	de	.	.
.	.	.	.	2.f\	de-	1r	.
.	.	.	.	4e\	.	.	.
.	.	.	.	1c	-o.	1cc	Lu-
=32	=32	=32	=32	=32	=32	=32	=32
0.r	.	0.r	.	1r	.	2b\	-men
.	.	.	.	.	.	2b\	de
.	.	.	.	1c	Lu-	2a/	lu-
.	.	.	.	.	.	2a/	-mi-
.	.	.	.	2B\	-men	1g	-ne.
.	.	.	.	2B\	de	.	.
=33	=33	=33	=33	=33	=33	=33	=33
0.r	.	0.r	.	2A/	lu-	1cc	De-
.	.	.	.	2A/	-mi-	.	.
.	.	.	.	1G	-ne.	2b\	-um
.	.	.	.	.	.	2g/	.
.	.	.	.	1c	De-	1a	ve-
=34	=34	=34	=34	=34	=34	=34	=34
0.r	.	0.r	.	2B\	-um	2g/	.
.	.	.	.	2G/	.	1g	.
.	.	.	.	1A	ve-	.	.
.	.	.	.	.	.	2f#i/	.
.	.	.	.	1G	-rum	1g	-rum
=35	=35	=35	=35	=35	=35	=35	=35
0.r	.	0.r	.	2c\	de	1r	.
.	.	.	.	2B\	.	.	.
.	.	.	.	2c\	.	2cc\	de
.	.	.	.	2d\	.	2b\	.
.	.	.	.	2e\	de-	2cc\	.
.	.	.	.	2d\	-o	2dd\	.
=36	=36	=36	=36	=36	=36	=36	=36
0.r	.	0.r	.	2.g\	ve-	2ee\	de-
.	.	.	.	.	.	2dd\	.
.	.	.	.	4f\	.	.	.
.	.	.	.	2g\	.	2b\	-o
.	.	.	.	2c\	.	2.ee\	ve-
.	.	.	.	2e\	.	.	.
.	.	.	.	.	.	4dd\	.
.	.	.	.	2f\	.	[2cc\	.
=37	=37	=37	=37	=37	=37	=37	=37
0.r	.	0.r	.	1d	.	2cc\]	.
.	.	.	.	.	.	2b\	.
.	.	.	.	2c\	.	2cc\	.
.	.	.	.	2B\	.	2dd\	.
.	.	.	.	1d	.	2.b\	.
.	.	.	.	.	.	4a/	.
=38	=38	=38	=38	=38	=38	=38	=38
0.r	.	0.r	.	0c	-ro.	0.cc	-ro.
.	.	.	.	1r	.	.	.
=39	=39	=39	=39	=39	=39	=39	=39
2.C/	A-	0c	A-	2.e\	Ge-	0.r	.
4D\	.	.	.	4f\	.	.	.
2E\	.	.	.	2g\	.	.	.
2F\	.	.	.	2a\	-ni-	.	.
1G	.	1B-	.	2d\	-tum	.	.
.	.	.	.	2e\	.	.	.
=40	=40	=40	=40	=40	=40	=40	=40
2F\	.	1A	.	1f	non	0.r	.
1D	.	.	.	.	.	.	.
.	.	1B-	.	2.d\	fa-	.	.
1G	.	.	.	.	.	.	.
.	.	.	.	4c\	.	.	.
.	.	[1G	.	2d\	.	.	.
[2C/	.	.	.	2e\	.	.	.
=41	=41	=41	=41	=41	=41	=41	=41
2C/]	.	2G/]	.	1c	-ctum,	0.r	.
2F\	.	2A/	.	.	.	.	.
2E\	.	2G/	.	2.g\	con-	.	.
2C/	.	1c	.	.	.	.	.
.	.	.	.	4e\	.	.	.
1D	.	.	.	1f	-sub-	.	.
.	.	2Bni\	.	.	.	.	.
=42	=42	=42	=42	=42	=42	=42	=42
0C	-ve,	0.c	-ve,	2e\	-stan-	0.r	.
.	.	.	.	1g	.	.	.
.	.	.	.	2a\	-ti-	.	.
1C	do-	.	.	2g\	-a-	.	.
.	.	.	.	2e\	-lem	.	.
=43	=43	=43	=43	=43	=43	=43	=43
1.F	-mi-	0c	do-	2r	.	0cc	Ge-
.	.	.	.	2.a\	pa-	.	.
.	.	.	.	4g\	.	.	.
2E\	.	.	.	1g	.	.	.
1D	.	1d	-mi-	.	.	2b\	-ni-
.	.	.	.	2f\	.	2a/	.
=44	=44	=44	=44	=44	=44	=44	=44
0.C	-na	1e	.	1g	-tri:	0cc	-tum,
.	.	0e	-na	1g	per	.	.
.	.	.	.	1g	quem	2cc\	non
.	.	.	.	.	.	2dd\	.
=45	=45	=45	=45	=45	=45	=45	=45
0c	an-	1r	.	2e\	om-	1.ee	fa-
.	.	.	.	2f\	-ni-	.	.
.	.	0e	an-	1g	-a	.	.
.	.	.	.	.	.	1cc	.
1A	.	.	.	1c	.	.	.
.	.	.	.	.	.	2cc\	.
=46	=46	=46	=46	=46	=46	=46	=46
1B	-ge-	1d	-ge-	1G	.	1dd	.
2c\	.	1.e	.	2r	.	1cc	.
2A\	.	.	.	2A/	fa-	.	.
1G	.	.	.	1B	-cta	1b	.
.	.	2d\	.	.	.	.	.
=47	=47	=47	=47	=47	=47	=47	=47
0F	-lo-	0.f	-lo-	0.c	sunt,	1a	-ctum
.	.	.	.	.	.	2a/	con-
.	.	.	.	.	.	1cc	.
2A\	.	.	.	.	.	.	.
2B\	.	.	.	.	.	2dd\	-sub-
=48	=48	=48	=48	=48	=48	=48	=48
0c	.	0.e	.	1r	.	1.ee	-stan-
.	.	.	.	0g	per	.	.
.	.	.	.	.	.	2dd\	-ti-
1c	.	.	.	.	.	1cc	-a-
=49	=49	=49	=49	=49	=49	=49	=49
0G	.	0.d	.	1g	quem	2b\	-lem
.	.	.	.	.	.	2.dd\	pa-
.	.	.	.	2g\	om-	.	.
.	.	.	.	.	.	4cc\	.
.	.	.	.	2g\	-ni-	2cc\	.
1G	.	.	.	1g	-a,	2.b\	.
.	.	.	.	.	.	4a\	.
=50	=50	=50	=50	=50	=50	=50	=50
1C	-rum,	1c	-rum,	2r	.	2cc\	-tri,
.	.	.	.	2e\	om-	2r	.
2r	.	2Bni\	.	2d\	.	1g	per
1.C	an-	1c	an-	1e	.	.	.
.	.	.	.	.	.	1cc	quem
.	.	2A/	-ge-	2c\	.	.	.
=51	=51	=51	=51	=51	=51	=51	=51
2G\	-ge-	2Bni\	-lo-	2d\	.	2b\	om-
2F\	.	1c	.	2A/	.	2.a/	.
1E	-lo-	.	.	1c	.	.	.
.	.	.	.	.	.	4g/	.
.	.	2G/	.	.	.	2e/	-ni-
1D	.	2A/	.	1d	-ni-	2f/	-a
.	.	2Bni\	.	.	.	2g/	.
=52	=52	=52	=52	=52	=52	=52	=52
0C	.	2.c\	.	1G	-a	2e/	fa-
.	.	.	.	.	.	1c 1g	.
.	.	4d\	.	.	.	.	.
.	.	2e\	.	1c	.	.	.
.	.	2f\	.	.	.	2.cc\	.
1G	.	1d	.	2r	.	.	.
.	.	.	.	.	.	4b\	.
.	.	.	.	2d\	fa-	4b/	-cta
.	.	.	.	.	.	4a/	.
=53	=53	=53	=53	=53	=53	=53	=53
0.Cl	-rum.	0.cl	-rum.	2.e\	.	0.ccl	sunt.
.	.	.	.	4c\	.	.	.
.	.	.	.	2e\	-cta	.	.
.	.	.	.	2f\	.	.	.
.	.	.	.	1gl	sunt.	.	.
!!LO:LB:i:g=z
=54||	=54||	=54||	=54||	=54||	=54||	=54||	=54||
*>B	*>B	*>B	*>B	*>B	*>B	*>B	*>B
*clefF4	*	*clefGv2	*	*clefGv2	*	*clefG2	*
*k[]	*	*k[b-]	*	*k[]	*	*k[]	*
*M3/1	*	*M3/1	*	*M3/1	*	*M3/1	*
*met(O)	*	*met(O)	*	*met(O)	*	*met(O)	*
!!section: Qui propter nos homines
!!!OMD: Qui propter nos homines
0.r	.	0.r	.	1.G	Qui	0.r	.
.	.	.	.	2A/	.	.	.
.	.	.	.	1B	pro-	.	.
=55	=55	=55	=55	=55	=55	=55	=55
0.r	.	0.r	.	1c	-pter	1.g	Qui
.	.	.	.	2B\	.	.	.
.	.	.	.	2c\	.	2a/	.
.	.	.	.	1d	nos	1b	pro-
=56	=56	=56	=56	=56	=56	=56	=56
0.r	.	0.r	.	1c	ho-	1cc	-pter
.	.	.	.	2g\	.	2b\	.
.	.	.	.	2e\	.	2cc\	.
.	.	.	.	2f\	.	1dd	nos
.	.	.	.	2g\	.	.	.
=57	=57	=57	=57	=57	=57	=57	=57
0.r	.	0.r	.	1a	.	1cc	ho-
.	.	.	.	1g	.	2b\	.
.	.	.	.	.	.	1a	.
.	.	.	.	2f\	.	.	.
.	.	.	.	[2g\	.	2g/	.
=58	=58	=58	=58	=58	=58	=58	=58
0.r	.	0.r	.	2g\]	.	2b\	.
.	.	.	.	2e\	.	2cc\	.
.	.	.	.	2f\	.	1dd	.
.	.	.	.	1g	.	.	.
.	.	.	.	.	.	2ee\	.
.	.	.	.	2d\	.	2ff\	.
=59	=59	=59	=59	=59	=59	=59	=59
0.r	.	0.r	.	2e\	.	2ee\	.
.	.	.	.	2f\	.	2.dd\	.
.	.	.	.	2g\	.	.	.
.	.	.	.	.	.	4cc\	.
.	.	.	.	2c\	.	1cc	.
.	.	.	.	1d	-mi-	.	.
.	.	.	.	.	.	2b\	-mi-
=60	=60	=60	=60	=60	=60	=60	=60
0.r	.	0.r	.	0.c	-nes,	0cc	-nes,
.	.	.	.	.	.	1r	.
=61	=61	=61	=61	=61	=61	=61	=61
0.r	.	0.r	.	1r	.	2.cc\	et
.	.	.	.	.	.	4b\	.
.	.	.	.	1r	.	2a/	.
.	.	.	.	.	.	1g	.
.	.	.	.	2.c\	et	.	.
.	.	.	.	.	.	[2cc\	pro-
.	.	.	.	4B\	.	.	.
=62	=62	=62	=62	=62	=62	=62	=62
0.r	.	0.r	.	2A/	.	2cc\]	.
.	.	.	.	1G	.	2b\	.
.	.	.	.	.	.	2dd\	.
.	.	.	.	1c	pro-	2ee\	.
.	.	.	.	.	.	2cc\	.
.	.	.	.	2B\	.	[2dd\	-pter
=63	=63	=63	=63	=63	=63	=63	=63
0.r	.	0.r	.	2d\	.	2dd\]	.
.	.	.	.	2e\	.	1g	no-
.	.	.	.	2c\	.	.	.
.	.	.	.	1d	-pter	4f/	.
.	.	.	.	.	.	4g/	.
.	.	.	.	.	.	2a/	.
.	.	.	.	[2G/	no-	2b-i\	.
=64	=64	=64	=64	=64	=64	=64	=64
0.r	.	0.r	.	2G/]	.	2g/	-stram
.	.	.	.	4F/	.	2r	.
.	.	.	.	4G/	.	.	.
.	.	.	.	2A/	.	2f/	sa-
.	.	.	.	2B-i\	.	2g/	.
.	.	.	.	2G/	-stram	2b-i\	-lu-
.	.	.	.	2r	.	4a\	.
.	.	.	.	.	.	[4cc\	.
=65	=65	=65	=65	=65	=65	=65	=65
0.r	.	0.r	.	2F/	sa-	4cc\]	.
.	.	.	.	.	.	4dd\	.
.	.	.	.	2G/	.	2.b-i\	.
.	.	.	.	2B-i\	-lu-	.	.
.	.	.	.	.	.	4g/	.
.	.	.	.	4A/	.	1a	.
.	.	.	.	2c\	.	.	.
.	.	.	.	4d\	.	.	.
.	.	.	.	2B-i\	.	[2g/	-tem,
=66	=66	=66	=66	=66	=66	=66	=66
0.r	.	0.r	.	2G/	.	2g/]	.
.	.	.	.	1A	.	2e/	de-
.	.	.	.	.	.	2f/	-scen-
.	.	.	.	2G/	-tem,	2g/	.
.	.	.	.	2r	.	4a/	.
.	.	.	.	.	.	2b-i\	.
.	.	.	.	2E/	de-	.	.
.	.	.	.	.	.	4cc\	.
=67	=67	=67	=67	=67	=67	=67	=67
0.r	.	0.r	.	2F/	-scen-	2a/	.
.	.	.	.	2G/	.	2g/	.
.	.	.	.	4A/	.	2r	.
.	.	.	.	2B-i\	.	.	.
.	.	.	.	.	.	2dd\	.
.	.	.	.	4c\	.	.	.
.	.	.	.	2A/	.	2cc\	.
.	.	.	.	2G/	.	2dd\	.
=68	=68	=68	=68	=68	=68	=68	=68
0.r	.	0.r	.	2d\	.	2b-i\	.
.	.	.	.	2c\	.	2.a/	.
.	.	.	.	2d\	.	.	.
.	.	.	.	.	.	4g/	.
.	.	.	.	2B-i\	.	1g	.
.	.	.	.	1A	.	.	.
.	.	.	.	.	.	2f#i/	.
=69	=69	=69	=69	=69	=69	=69	=69
0.r	.	0.r	.	1G	-dit	0g	-dit
.	.	.	.	2r	.	.	.
.	.	.	.	2c\	de	.	.
.	.	.	.	4B\	ce-	2r	.
.	.	.	.	2c\	.	.	.
.	.	.	.	.	.	2cc\	de
.	.	.	.	4d\	.	.	.
=70	=70	=70	=70	=70	=70	=70	=70
0.r	.	0.r	.	2e\	.	4b\	ce-
.	.	.	.	.	.	2cc\	.
.	.	.	.	2f\	.	.	.
.	.	.	.	.	.	4dd\	.
.	.	.	.	2g\	.	2ee\	.
.	.	.	.	2a\	.	2.ff\	.
.	.	.	.	2f\	.	.	.
.	.	.	.	.	.	4ee\	.
.	.	.	.	[2g\	.	4dd\	.
.	.	.	.	.	.	4cc\	.
=71	=71	=71	=71	=71	=71	=71	=71
0.r	.	0.r	.	2g\]	.	2ee\	.
.	.	.	.	4G/	.	2.dd\	.
.	.	.	.	4A/	.	.	.
.	.	.	.	4B/	.	.	.
.	.	.	.	8A/L	.	4cc\	.
.	.	.	.	8B/J	.	.	.
.	.	.	.	2c\	.	2cc\	.
.	.	.	.	2.d\	.	2a/	.
.	.	.	.	.	.	2b\	.
.	.	.	.	4e\	.	.	.
=72	=72	=72	=72	=72	=72	=72	=72
0.r	.	0.r	.	2c\	.	4r	.
.	.	.	.	.	.	4cc\	.
.	.	.	.	2.f\	.	4dd\	.
.	.	.	.	.	.	4cc\	.
.	.	.	.	.	.	4a/	.
.	.	.	.	4g\	.	4g/	.
.	.	.	.	2e\	.	1cc	.
.	.	.	.	1d	.	.	.
.	.	.	.	.	.	2b\	.
=73	=73	=73	=73	=73	=73	=73	=73
[0.C	Sal-	0.r	.	0c	-lis.	0.cc	-lis.
.	.	.	.	1r	.	.	.
=74	=74	=74	=74	=74	=74	=74	=74
0.C]	.	[0.c	Sal-	1g	Et	0.r	.
.	.	.	.	1g	in-	.	.
.	.	.	.	1g	-car-	.	.
=75	=75	=75	=75	=75	=75	=75	=75
0.F	.	0.c_	.	0f	-na-	1a	Et
.	.	.	.	.	.	1a	in-
.	.	.	.	1f	-tus	1a	-car-
=76	=76	=76	=76	=76	=76	=76	=76
0.C	-ve,	0.c]	.	0e	est	1g	-na-
.	.	.	.	.	.	0cc	-tus
.	.	.	.	1g	de	.	.
=77	=77	=77	=77	=77	=77	=77	=77
1.G	sal-	0.d	.	1.g	spi-	1b	est
.	.	.	.	.	.	1dd	.
2A\	.	.	.	2f\	.	.	.
1B	.	.	.	1d	-ri-	1dd	de
=78	=78	=78	=78	=78	=78	=78	=78
2c\	.	0e	.	1c	-tu	2.g/	spi-
2A\	.	.	.	.	.	.	.
.	.	.	.	.	.	4a/	.
1G	.	.	.	1B	.	2.b\	.
.	.	.	.	.	.	4cc\	.
1F	.	[1f	.	1c	.	[1a	-ri-
=79	=79	=79	=79	=79	=79	=79	=79
2D\	.	2f\]	.	2d\	san-	1a]	.
2C/	.	2e\	.	2e\	.	.	.
2F\	.	2d\	.	1A	.	1a	-tu
2E\	.	2c\	.	.	.	.	.
1D	.	1d	.	2.B\	.	1f	san-
.	.	.	.	4A/	.	.	.
=80	=80	=80	=80	=80	=80	=80	=80
0.C	-ve,	0.e	-ve,	0c	-cto,	0g	-cto,
.	.	.	.	1r	.	1cc	ex
=81	=81	=81	=81	=81	=81	=81	=81
1r	.	0.g	ra-	0e	ex	1b	Ma-
0C	ra-	.	.	.	.	0cc	-ri-
.	.	.	.	1e	Ma-	.	.
=82	=82	=82	=82	=82	=82	=82	=82
0D	.	0.f	.	1d	-ri-	1a	-a
.	.	.	.	0d	-a	1a	vir-
1D	-dix	.	.	.	.	1b	-gi-
=83	=83	=83	=83	=83	=83	=83	=83
0.C	san-	0.e	-dix	0G	vir-	0.cc	-ne,
.	.	.	.	1A	-gi-	.	.
=84	=84	=84	=84	=84	=84	=84	=84
0.BB	.	0.d	.	0.B	-ne,	1r	.
.	.	.	.	.	.	0dd	et
=85	=85	=85	=85	=85	=85	=85	=85
0.C	.	0.c	.	0G	.	1.ee	ho-
.	.	.	.	.	.	2dd\	.
.	.	.	.	1g	et	1cc	-mo
=86	=86	=86	=86	=86	=86	=86	=86
0.G	.	1d	san-	1g	ho-	2.b\	fa-
.	.	.	.	.	.	4cc\	.
.	.	2Bni\	.	0g	-mo	2dd\	.
.	.	2c\	.	.	.	2ee\	.
.	.	1d	.	.	.	2dd\	.
.	.	.	.	.	.	[2b\	.
=87	=87	=87	=87	=87	=87	=87	=87
2E\	.	2G/	.	0g	fa-	2b\]	.
2F\	.	2c\	.	.	.	2a/	.
2G\	.	2Bni\	.	.	.	2g/	.
2C/	.	2e\	.	.	.	1cc	.
1G	.	1d	.	1g	-ctus	.	.
.	.	.	.	.	.	2b\	-ctus
=88	=88	=88	=88	=88	=88	=88	=88
0.C	-cta,	0.c	-cta,	2e\	est.	0.cc	est.
.	.	.	.	2f\	.	.	.
.	.	.	.	1g	.	.	.
.	.	.	.	1r	.	.	.
=89	=89	=89	=89	=89	=89	=89	=89
1c	san-	0.r	.	1e	Cru-	0.r	.
2B\	.	.	.	2d\	-ci-	.	.
1A	.	.	.	2e\	.	.	.
.	.	.	.	2f\	-fi-	.	.
[2G\	.	.	.	2g\	.	.	.
=90	=90	=90	=90	=90	=90	=90	=90
2G\]	.	0.r	.	2e\	.	0.r	.
2F\	.	.	.	2.d\	.	.	.
2G\	.	.	.	.	.	.	.
.	.	.	.	4c\	.	.	.
2E\	.	.	.	1c	.	.	.
1D	.	.	.	.	.	.	.
.	.	.	.	2B\	.	.	.
=91	=91	=91	=91	=91	=91	=91	=91
0.C	-cta,	0.r	.	2c\	.	1e	Cru-
.	.	.	.	2G/	.	.	.
.	.	.	.	2.c\	-xus	2e/	-ci-
.	.	.	.	.	.	2g/	.
.	.	.	.	4B\	.	.	.
.	.	.	.	2A/	.	4a/	-fi-
.	.	.	.	.	.	2cc\	.
.	.	.	.	2G/	.	.	.
.	.	.	.	.	.	4b\	.
=92	=92	=92	=92	=92	=92	=92	=92
0.r	.	0.r	.	2r	.	1g	-xus
.	.	.	.	1c	e-	.	.
.	.	.	.	.	.	2cc\	e-
.	.	.	.	2d\	-ti-	2.b\	.
.	.	.	.	2e\	-am	.	.
.	.	.	.	.	.	4cc\	.
.	.	.	.	[2f\	.	2dd\	-ti-
=93	=93	=93	=93	=93	=93	=93	=93
0.r	.	0.r	.	4f\]	.	2ee\	-am
.	.	.	.	4e\	.	.	.
.	.	.	.	2.g\	pro	2dd\	pro
.	.	.	.	.	.	2b\	no-
.	.	.	.	4f\	.	.	.
.	.	.	.	2e\	.	2cc\	.
.	.	.	.	1d	no-	4b/	.
.	.	.	.	.	.	4.a/	.
.	.	.	.	.	.	8g/	.
.	.	.	.	.	.	4f/	.
=94	=94	=94	=94	=94	=94	=94	=94
0C	ex	0c	ex	2c\	-bis	1e	-bis
.	.	.	.	2r	.	.	.
.	.	.	.	1g	sub	1r	.
[1F	.	1c	.	2f\	Pon-	1cc	sub
.	.	.	.	[2a\	.	.	.
=95	=95	=95	=95	=95	=95	=95	=95
2F\]	.	1.A	qua	4a\]	.	1cc	Pon-
.	.	.	.	4g\	.	.	.
1c	qua	.	.	1e	.	.	.
.	.	.	.	.	.	2.a/	-ti-
2B\	.	2G/	.	2g\	.	.	.
.	.	.	.	.	.	4b\	.
1A	.	1A	.	2.f#i\	-ti-	1cc	-o
.	.	.	.	4e\	.	.	.
=96	=96	=96	=96	=96	=96	=96	=96
0G	mun-	1B-	mun-	1g	-o	1dd	Pi-
.	.	2G/	.	1r	.	2.b-i\	-la-
.	.	1d	.	.	.	.	.
.	.	.	.	.	.	4g/	.
1F	.	.	.	1r	.	1a	.
.	.	2c\	.	.	.	.	.
=97	=97	=97	=97	=97	=97	=97	=97
1G	.	1B-	.	1d	Pi-	1g	.
0D	.	0A	.	1d	-la-	1a	.
.	.	.	.	1d	-to,	2.f#i/	.
.	.	.	.	.	.	4e/	.
=98	=98	=98	=98	=98	=98	=98	=98
1d	-do,	0G	-do,	2B\	pas-	1g	-to,
.	.	.	.	2c\	.	.	.
2B\	.	.	.	1d	.	1r	.
2c\	.	.	.	.	.	.	.
1d	.	1r	.	1G	-sus	1b	pas-
=99	=99	=99	=99	=99	=99	=99	=99
1r	.	1G	mun-	1g	et	1b	-sus
0D	mun-	1.A	.	0f	se-	2a/	et
.	.	.	.	.	.	2.a/	se-
.	.	.	.	.	.	4g/	.
.	.	2Bni\	.	.	.	2f/	.
=100	=100	=100	=100	=100	=100	=100	=100
0C	.	[0.c	.	1g	-pul-	1e	-pul-
.	.	.	.	1e	.	1g	.
2F\	.	.	.	2f\	-tus	2a/	.
2G\	.	.	.	[2e\	.	2g/	.
=101	=101	=101	=101	=101	=101	=101	=101
1A	.	1c]	.	2e\]	.	1.cc	.
.	.	.	.	2f\	.	.	.
0G	.	0d	.	1g	est.	.	.
.	.	.	.	.	.	1b	-tus
.	.	.	.	1r	.	.	.
.	.	.	.	.	.	2a/	.
=102	=102	=102	=102	=102	=102	=102	=102
1A	-do	0c	-do	1e	Et	1cc	est.
0F	.	.	.	2f\	re-	2r	.
.	.	.	.	2g\	.	1cc	Et
.	.	1c	lux	1a	-sur-	.	.
.	.	.	.	.	.	2cc\	re-
=103	=103	=103	=103	=103	=103	=103	=103
1r	.	1d	est	1f	-re-	1a	-sur-
0c	lux	1.e	.	1g	.	2cc\	-re-
.	.	.	.	.	.	2b\	.
.	.	.	.	1g	-xit	1g	-xit
.	.	2d\	.	.	.	.	.
=104	=104	=104	=104	=104	=104	=104	=104
1F	.	0f	or-	1a	ter-	2r	.
.	.	.	.	.	.	1cc	ter-
2A\	.	.	.	1a	-ti-	.	.
2B\	.	.	.	.	.	2dd\	-ti-
1c	est	1e	.	1g	-a	2ee\	-a
.	.	.	.	.	.	2cc\	.
=105	=105	=105	=105	=105	=105	=105	=105
1G	.	1d	.	1g	di-	1b	di-
2r	.	1g	.	1e	-e	1ee	.
2C/	or-	.	.	.	.	.	.
2D\	.	2f\	.	2f\	se-	2dd\	.
2E\	.	[2g\	.	[2e\	.	2b\	.
=106	=106	=106	=106	=106	=106	=106	=106
1C	.	2g\]	.	4e\]	.	1.cc	-e
.	.	.	.	4f\	.	.	.
.	.	2e\	.	2g\	.	.	.
1F	.	2c\	.	1a	-cun-	.	.
.	.	2.d\	.	.	.	2a/	se-
1D	.	.	.	1f	.	4b/	-cun-
.	.	4A/	.	.	.	4a/	.
.	.	2Bni\	.	.	.	4g/	.
.	.	.	.	.	.	4f/	.
=107	=107	=107	=107	=107	=107	=107	=107
0C	.	2c\	.	2g\	-dum	2e/	-dum
.	.	2G/	.	1e	scrip-	1g	scrip-
.	.	2c\	.	.	.	.	.
.	.	2e\	.	1.g	-tu-	2.cc\	-tu-
1G	.	1d	.	.	.	.	.
.	.	.	.	.	.	4b\	.
.	.	.	.	.	.	4b/	.
.	.	.	.	.	.	4a/	.
=108	=108	=108	=108	=108	=108	=108	=108
0.Cl	-ta.	0.cl	-ta.	1g	.	0.ccl	-ras.
.	.	.	.	2e\	.	.	.
.	.	.	.	2f\	.	.	.
.	.	.	.	1gl	-ras.	.	.
!!LO:LB:i:g=z
=109||	=109||	=109||	=109||	=109||	=109||	=109||	=109||
*>C	*>C	*>C	*>C	*>C	*>C	*>C	*>C
*clefF4	*	*clefGv2	*	*clefGv2	*	*clefG2	*
*k[]	*	*k[b-]	*	*k[]	*	*k[]	*
*M2/1	*	*M2/1	*	*M2/1	*	*M2/1	*
*met(C)	*	*met(C)	*	*met(C)	*	*met(C)	*
!!section: Et ascendit in celum
!!!OMD: Et ascendit in celum
1C	Et	0r	.	0G	Et	0r	.
1E	.	.	.	.	.	.	.
=110.	=110	=110.	=110	=110.	=110	=110.	=110
1D	a-	0r	.	0A	a-	0r	.
1F	.	.	.	.	.	.	.
=111	=111	=111	=111	=111	=111	=111	=111
1E	-scen-	0r	.	0B	-scen-	0g	Et
1G	.	.	.	.	.	.	.
=112.	=112	=112.	=112	=112.	=112	=112.	=112
1F	-dit	0r	.	0c	-dit	0a	a-
1A	in	.	.	.	.	.	.
=113	=113	=113	=113	=113	=113	=113	=113
0G	ce-	0r	.	0d	in	0b	-scen-
=114.	=114	=114.	=114	=114.	=114	=114.	=114
0C	-lum,	0r	.	1c	ce-	0cc	-dit
.	.	.	.	1e	.	.	.
=115	=115	=115	=115	=115	=115	=115	=115
1r	.	0r	.	2d\	.	0dd	.
.	.	.	.	1f	.	.	.
1BB	se-	.	.	.	.	.	.
.	.	.	.	2e\	.	.	.
=116.	=116	=116.	=116	=116.	=116	=116.	=116
1C	-det	0r	.	1c	-lum,	0ee	in
1E	.	.	.	1c	se-	.	.
=117	=117	=117	=117	=117	=117	=117	=117
1D	.	0r	.	1d	-det	1.ff	ce-
1BB	ad	.	.	1d	ad	.	.
.	.	.	.	.	.	4ee\	.
.	.	.	.	.	.	4dd\	.
=118.	=118	=118.	=118	=118.	=118	=118.	=118
1C	dex-	0r	.	0e	dex-	1cc	-lum,
1AA	.	.	.	.	.	1cc	se-
=119	=119	=119	=119	=119	=119	=119	=119
1BB	.	0r	.	1d	.	1dd	-det
1D	-te-	.	.	1B	-te-	1dd	ad
=120.	=120	=120.	=120	=120.	=120	=120.	=120
0C	-ram	0r	.	0c	-ram	0ee	dex-
=121	=121	=121	=121	=121	=121	=121	=121
0G	pa-	0r	.	1.d	pa-	1dd	.
.	.	.	.	.	.	1b	-te-
.	.	.	.	2c\	.	.	.
=122.	=122	=122.	=122	=122.	=122	=122.	=122
1A	.	0r	.	1A	.	1cc	-ram
1B	.	.	.	1G	.	2.dd\	pa-
.	.	.	.	.	.	4cc\	.
=123	=123	=123	=123	=123	=123	=123	=123
2r	.	0r	.	1c	.	2a/	.
1.c	.	.	.	.	.	2g/	.
.	.	.	.	1e	.	[1cc	.
=124.	=124	=124.	=124	=124.	=124	=124.	=124
0G	.	0r	.	0d	.	1cc]	.
.	.	.	.	.	.	1b	.
=125	=125	=125	=125	=125	=125	=125	=125
0C	-tris.	0r	.	[0c	-tris.	0cc	-tris.
=126.	=126	=126.	=126	=126.	=126	=126.	=126
0r	.	0r	.	0c]	.	1r	.
.	.	.	.	.	.	1g	Et
=127	=127	=127	=127	=127	=127	=127	=127
1F	Et	0r	.	1r	.	1a	i-
2G\	i-	.	.	1G	Et	1b	-te-
[2E\	.	.	.	.	.	.	.
=128.	=128	=128.	=128	=128.	=128	=128.	=128
2E\]	.	0r	.	1A	i-	1cc	-rum
2F\	.	.	.	.	.	.	.
1D	-te-	.	.	1B	-te-	1dd	ven-
=129	=129	=129	=129	=129	=129	=129	=129
1C	-rum	0r	.	1c	-rum	1ee	-tu-
1BB	.	.	.	1d	ven-	1dd	-rus
=130.	=130	=130.	=130	=130.	=130	=130.	=130
2r	.	0r	.	1e	-tu-	2cc\	est
2C/	ven-	.	.	.	.	2r	.
2D\	-tu-	.	.	1d	-rus	1ff	cum
2BB/	-rus	.	.	.	.	.	.
=131	=131	=131	=131	=131	=131	=131	=131
1C	est	0r	.	2c\	est	1ee	glo-
.	.	.	.	2r	.	.	.
2D\	cum	.	.	1f	cum	1dd	-ri-
2BB/	.	.	.	.	.	.	.
=132.	=132	=132.	=132	=132.	=132	=132.	=132
2C/	glo-	0r	.	1e	glo-	1cc	-a,
2AA/	.	.	.	.	.	.	.
1BB	-ri-	.	.	1d	-ri-	1b	ju-
=133	=133	=133	=133	=133	=133	=133	=133
1E	-a,	0r	.	1c	-a,	1cc	-di-
1D	.	.	.	1B	ju-	1dd	.
=134.	=134	=134.	=134	=134.	=134	=134.	=134
1C	.	0r	.	1c	-di-	1g	.
1r	.	.	.	1d	-ca-	2.f/	-ca-
.	.	.	.	.	.	4e/	.
=135	=135	=135	=135	=135	=135	=135	=135
1E	ju-	0r	.	2G/	-re	2g/	-re
.	.	.	.	2r	.	2r	.
1A	-di-	.	.	1F	vi-	1a	vi-
=136.	=136	=136.	=136	=136.	=136	=136.	=136
1G	-ca-	0r	.	1G	-vos	1b	-vos
2F\	.	.	.	[1c	.	2a/	et
2E\	.	.	.	.	.	2g/	.
=137	=137	=137	=137	=137	=137	=137	=137
0C	-re	0r	.	1c]	.	2cc\	mor-
.	.	.	.	.	.	2b\	.
.	.	.	.	1c	et	2a/	.
.	.	.	.	.	.	2g/	.
=138.	=138	=138.	=138	=138.	=138	=138.	=138
1G	vi-	0r	.	2B\	mor-	1g	-tu-
.	.	.	.	2G/	.	.	.
1D	-vos	.	.	1A	-tu-	2f#i/	.
.	.	.	.	.	.	2e/	.
=139	=139	=139	=139	=139	=139	=139	=139
1r	.	0r	.	0G	-os:	0g	-os:
2E\	et	.	.	.	.	.	.
2C/	.	.	.	.	.	.	.
=140.	=140	=140.	=140	=140.	=140	=140.	=140
2E\	mor-	0r	.	0r	.	0r	.
2F\	.	.	.	.	.	.	.
1G	-tu-	.	.	.	.	.	.
=141	=141	=141	=141	=141	=141	=141	=141
1C	-os:	0r	.	0c	cu-	1g	cu-
1F	cu-	.	.	.	.	1a	.
=142.	=142	=142.	=142	=142.	=142	=142.	=142
1E	-ius	0r	.	0c	-ius	1g	-ius
1A	.	.	.	.	.	[1cc	re-
=143	=143	=143	=143	=143	=143	=143	=143
0G	re-	0r	.	0d	re-	1cc]	.
.	.	.	.	.	.	1b	.
=144.	=144	=144.	=144	=144.	=144	=144.	=144
1C	.	0r	.	[0c	-gni	1.cc	.
[1F	.	.	.	.	.	.	.
.	.	.	.	.	.	2a/	.
=145	=145	=145	=145	=145	=145	=145	=145
1F]	.	0r	.	0c_	.	1a	-gni
1E	.	.	.	.	.	2g/	.
.	.	.	.	.	.	2f/	.
=146.	=146	=146.	=146	=146.	=146	=146.	=146
0C	-gni	0r	.	0c]	.	1e	.
.	.	.	.	.	.	1r	.
=147	=147	=147	=147	=147	=147	=147	=147
3%4GV	non	0r	.	3%4BV	non	3%4dV	non
3%2CZ	e-	.	.	3%2cZ	e-	[3%2eZ	e-
=148.	=148	=148.	=148	=148.	=148	=148.	=148
3%2EV	.	0r	.	3%2GV	.	3%2e]V	.
3%4DZ	-rit	.	.	3%4AZ	-rit	3%4fZ	-rit
=149	=149	=149	=149	=149	=149	=149	=149
3%2EV	fi-	0r	.	3%2GV	fi-	3%4gV	fi-
3%4CZ	.	.	.	3%4cZ	.	.	.
.	.	.	.	.	.	3%2aZ	.
=150.	=150	=150.	=150	=150.	=150	=150.	=150
3%2EV	.	0r	.	3%2BV	.	3%2gV	.
3%2A	.	.	.	3%2c	.	3%2a	.
[3%2GZ	.	.	.	3%2dZ	.	[3%2bZ	.
=151	=151	=151	=151	=151	=151	=151	=151
3G\]V	.	0r	.	3%4eV	.	3%2b]V	.
3F\	.	.	.	.	.	.	.
3%2E	.	.	.	.	.	3%2cc	.
3%2DZ	.	.	.	3%2fZ	.	3%2ddZ	.
=152.	=152	=152.	=152	=152.	=152	=152.	=152
3%4CV	.	0r	.	3%2eV	.	3%2.eeV	.
.	.	.	.	3%4gZ	.	.	.
.	.	.	.	.	.	3dd\	.
[3%2cZ	.	.	.	.	.	[3%2eeZ	.
=153	=153	=153	=153	=153	=153	=153	=153
3%2c]V	.	0r	.	3%2aV	.	3%2ee]V	.
3%2d	.	.	.	3%2f	.	3ff\	.
.	.	.	.	.	.	3ee\	.
3%2BZ	.	.	.	3%2gZ	.	3dd\	.
.	.	.	.	.	.	3cc\Z	.
=154.	=154	=154.	=154	=154.	=154	=154.	=154
3%2cV	.	0r	.	3%2eV	.	3%4ccV	.
3%4GZ	.	.	.	3%4dZ	.	.	.
.	.	.	.	.	.	3%2bZ	.
=155	=155	=155	=155	=155	=155	=155	=155
[0C	-nis.	[0c	Gau-	0c	-nis.	[0cc	-nis.
=156.	=156	=156.	=156	=156.	=156	=156.	=156
0C]	.	0c_	.	0r	.	0cc]	.
=157	=157	=157	=157	=157	=157	=157	=157
[0F	Gau-	0c]	.	0A	Et	0r	.
=158.	=158	=158.	=158	=158.	=158	=158.	=158
0F]	.	1c	.	0A	in	1a	Et
.	.	1d	.	.	.	1a	in
=159	=159	=159	=159	=159	=159	=159	=159
0E	-de,	[0e	-de	1B	spi-	1g	spi-
.	.	.	.	1B	-ri-	2g/	-ri-
.	.	.	.	.	.	[2g/	-tum
=160.	=160	=160.	=160	=160.	=160	=160.	=160
0C	.	0e]	.	1c	-tum	2g/]	.
.	.	.	.	.	.	2.g/	san-
.	.	.	.	1c	san-	.	.
.	.	.	.	.	.	4f/	.
.	.	.	.	.	.	2e/	.
=161	=161	=161	=161	=161	=161	=161	=161
[0D	.	[0f	.	1A	-ctum,	1.d	-ctum,
.	.	.	.	[1d	do-	.	.
.	.	.	.	.	.	2a/	do-
=162.	=162	=162.	=162	=162.	=162	=162.	=162
0D]	.	0f]	.	2d\]	.	2b-i\	.
.	.	.	.	2c\	.	1a	.
.	.	.	.	2A/	-mi-	.	.
.	.	.	.	2B\	.	4g/	-mi-
.	.	.	.	.	.	4f/	.
=163	=163	=163	=163	=163	=163	=163	=163
[0C	.	[0g	.	0c	-num	1e	-num
.	.	.	.	.	.	1r	.
=164.	=164	=164.	=164	=164.	=164	=164.	=164
0C]	.	0g_	.	0e	et	0cc	et
=165	=165	=165	=165	=165	=165	=165	=165
1.G	glo-	0g_	.	1.d	vi-	1b	vi-
.	.	.	.	.	.	[1dd	-vi-
2A\	.	.	.	2c\	.	.	.
=166.	=166	=166.	=166	=166.	=166	=166.	=166
1B	.	0g]	.	1d	-vi-	1dd]	.
1c	-ri-	.	.	1e	-fi-	1cc	-fi-
=167	=167	=167	=167	=167	=167	=167	=167
2B\	-o-	0r	.	2d\	-can-	2dd\	-can-
1c	.	.	.	2c\	.	2.ee\	.
.	.	.	.	2.e\	.	.	.
.	.	.	.	.	.	4cc\	.
[2A\	.	.	.	.	.	[2cc\	.
.	.	.	.	4f\	.	.	.
=168.	=168	=168.	=168	=168.	=168	=168.	=168
2A\]	.	0r	.	2e\	.	2cc\]	.
2F\	.	.	.	4d\	.	2a/	.
.	.	.	.	4c\	.	.	.
1G	-sa,	.	.	2.B\	.	1b	.
.	.	.	.	4A/	.	.	.
=169	=169	=169	=169	=169	=169	=169	=169
0F	glo-	0f	glo-	0c	-tem:	1a	-tem:
.	.	.	.	.	.	1r	.
=170.	=170	=170.	=170	=170.	=170	=170.	=170
[0C	.	[0e	.	1r	.	1g	qui
.	.	.	.	1c	qui	1cc	ex
=171	=171	=171	=171	=171	=171	=171	=171
0C]	.	0e]	.	1g	ex	0cc	pa-
.	.	.	.	[1g	pa-	.	.
=172.	=172	=172.	=172	=172.	=172	=172.	=172
0G	-ri-	0d	-ri-	1g]	.	0b	-tre
.	.	.	.	1g	-tre	.	.
=173	=173	=173	=173	=173	=173	=173	=173
[0A	-o-	[0c	-o-	2f\	fi-	1a	fi-
.	.	.	.	1e	-li-	.	.
.	.	.	.	.	.	1cc	-li-
.	.	.	.	[2a\	-o-	.	.
=174.	=174	=174.	=174	=174.	=174	=174.	=174
0A]	.	0c]	.	4a\]	.	0cc	-o-
.	.	.	.	4g\	.	.	.
.	.	.	.	2g\	.	.	.
.	.	.	.	2e\	.	.	.
.	.	.	.	2f#i\	.	.	.
=175	=175	=175	=175	=175	=175	=175	=175
0G	.	[0d	.	0g	-que	0b	-que
=176.	=176	=176.	=176	=176.	=176	=176.	=176
1F	.	1d]	.	1a	pro-	1a	pro-
1G	.	1Bni	.	1g	.	1dd	.
=177	=177	=177	=177	=177	=177	=177	=177
2.A\	.	1c	.	1.e	-ce-	2cc\	-ce-
.	.	.	.	.	.	2a/	.
4B\	.	.	.	.	.	.	.
1c	.	1e	.	.	.	2g/	.
.	.	.	.	[2g\	.	2cc\	.
=178.	=178	=178.	=178	=178.	=178	=178.	=178
0G	.	0d	.	1g]	.	2dd\	.
.	.	.	.	.	.	1b	.
.	.	.	.	1g	-dit,	.	.
.	.	.	.	.	.	2a/	.
=179	=179	=179	=179	=179	=179	=179	=179
[0C	-sa,	[0c	-sa,	0r	.	[0cc	-dit.
=180.	=180	=180.	=180	=180.	=180	=180.	=180
0C]	.	0c]	.	2G/	pro-	0cc]	.
.	.	.	.	2A/	.	.	.
.	.	.	.	2G/	.	.	.
.	.	.	.	[2c\	-ce-	.	.
=181	=181	=181	=181	=181	=181	=181	=181
1C	su-	0r	.	2c\]	.	0r	.
.	.	.	.	2e-\	.	.	.
2BB/	.	.	.	2d\	.	.	.
[2C/	.	.	.	2e-i\	.	.	.
=182.	=182	=182.	=182	=182.	=182	=182.	=182
2C/]	.	0r	.	4f\	.	0r	.
.	.	.	.	4e-i\	.	.	.
2E-\	.	.	.	4d\	.	.	.
.	.	.	.	4c\	.	.	.
1D	.	.	.	2.B\	.	.	.
.	.	.	.	4A/	.	.	.
=183	=183	=183	=183	=183	=183	=183	=183
0C	-per	[0c	su-	1c	.	0r	.
.	.	.	.	[1G	.	.	.
=184.	=184	=184.	=184	=184.	=184	=184.	=184
1C	om-	0c]	.	1G]	.	0r	.
[1F	.	.	.	2A/	.	.	.
.	.	.	.	2B\	.	.	.
=185	=185	=185	=185	=185	=185	=185	=185
2F\]	.	0A	-per	0c	-dit.	0r	.
2E-i\	.	.	.	.	.	.	.
1F	.	.	.	.	.	.	.
=186.	=186	=186.	=186	=186.	=186	=186.	=186
0G	.	0B-	.	0r	.	0r	.
=187	=187	=187	=187	=187	=187	=187	=187
0D	.	1A	om-	0r	.	0r	.
.	.	[1d	.	.	.	.	.
=188.	=188	=188.	=188	=188.	=188	=188.	=188
0E-i	.	2d\]	.	0r	.	0r	.
.	.	2c\	.	.	.	.	.
.	.	1c	.	.	.	.	.
=189	=189	=189	=189	=189	=189	=189	=189
1D	.	1d	.	0r	.	0r	.
[1G	.	1B-	.	.	.	.	.
=190.	=190	=190.	=190	=190.	=190	=190.	=190
2G\]	.	0A	.	0r	.	0r	.
2F#i\	.	.	.	.	.	.	.
1F#i	-nes,	.	.	.	.	.	.
=191	=191	=191	=191	=191	=191	=191	=191
1r	.	0G	-nes,	0r	.	0r	.
1G	su-	.	.	.	.	.	.
=192.	=192	=192.	=192	=192.	=192	=192.	=192
1A	.	1r	.	0r	.	0r	.
1B-i	.	1G	su-	.	.	.	.
=193	=193	=193	=193	=193	=193	=193	=193
1c	-per	1A	.	0r	.	0r	.
1G	.	1B-	.	.	.	.	.
=194.	=194	=194.	=194	=194.	=194	=194.	=194
1r	.	0c	-per	0r	.	0r	.
1A-	om-	.	.	.	.	.	.
=195	=195	=195	=195	=195	=195	=195	=195
1G	.	1B-	om-	0r	.	0r	.
1A-i	.	1c	.	.	.	.	.
=196.	=196	=196.	=196	=196.	=196	=196.	=196
1F	.	0d	.	0r	.	0r	.
[1G	.	.	.	.	.	.	.
=197	=197	=197	=197	=197	=197	=197	=197
1G]	.	1B-	.	0r	.	0r	.
[1C	.	1c	.	.	.	.	.
=198.	=198	=198.	=198	=198.	=198	=198.	=198
1C]	.	1e-	.	0r	.	0r	.
1BB-i	.	1d	.	.	.	.	.
=199	=199	=199	=199	=199	=199	=199	=199
1C	.	1e-i	.	0r	.	0r	.
1AA	.	1c	.	.	.	.	.
=200.	=200	=200.	=200	=200.	=200	=200.	=200
0BB-i	.	0d	.	0r	.	0r	.
=201	=201	=201	=201	=201	=201	=201	=201
1C	.	1c	.	0r	.	0r	.
1E-i	.	[1c	.	.	.	.	.
=202.	=202	=202.	=202	=202.	=202	=202.	=202
0D	.	1c]	.	0r	.	0r	.
.	.	1Bni	.	.	.	.	.
=203	=203	=203	=203	=203	=203	=203	=203
0C	-nes	[0c	-nes	1.e	Qui	1g	Qui
.	.	.	.	.	.	1a	.
.	.	.	.	2f\	.	.	.
=204.	=204	=204.	=204	=204.	=204	=204.	=204
0r	.	0c]	.	1g	cum	1g	cum
.	.	.	.	1a	pa-	[1cc	pa-
=205	=205	=205	=205	=205	=205	=205	=205
1A	spe-	0r	.	1f	.	1cc]	.
1G	-ci-	.	.	[1g	.	1b	.
=206.	=206	=206.	=206	=206.	=206	=206.	=206
1.c	-o-	0r	.	1g]	.	0g	.
.	.	.	.	1e	.	.	.
2B\	.	.	.	.	.	.	.
=207	=207	=207	=207	=207	=207	=207	=207
1A	.	0r	.	1f	.	1a	.
1G	.	.	.	[1g	-tre	1b	.
=208.	=208	=208.	=208	=208.	=208	=208.	=208
0C	-sa,	0r	.	1g]	.	1.g	-tre
.	.	.	.	1e	.	.	.
.	.	.	.	.	.	2f/	.
=209	=209	=209	=209	=209	=209	=209	=209
1C	spe-	0r	.	1c	.	1e	.
[1G	.	.	.	1d	.	[1d	.
=210.	=210	=210.	=210	=210.	=210	=210.	=210
1G]	.	0r	.	1B	.	1d]	.
1F	-ci-	.	.	1c	et	1a	et
=211	=211	=211	=211	=211	=211	=211	=211
0E-	-o-	0r	.	0G	fi-	1b-	fi-
.	.	.	.	.	.	[1g	.
=212.	=212	=212.	=212	=212.	=212	=212.	=212
0D	.	0r	.	0A	-li-	1g]	.
.	.	.	.	.	.	2f#i/	-li-
.	.	.	.	.	.	2e/	.
=213	=213	=213	=213	=213	=213	=213	=213
1.Eni	.	0r	.	[0Gl	-o.	0g	-o
2C/	.	.	.	.	.	.	.
=214.	=214	=214.	=214	=214.	=214	=214.	=214
[0C	-sa,	0r	.	0G]	.	0r	.
=215	=215	=215	=215	=215	=215	=215	=215
*	*	*M3/1	*	*	*	*M3/1	*
*	*	*met(O)	*	*	*	*met(3)	*
*rscale:2/3	*	*rscale:1	*	*	*	*	*
!!primary-mensuration: met(3)
!	!	!LO:TX:Z=40:X=-40:t=NB&colon; T note values have been expanded in this	!	!	!	!	!
!	!	!LO:TX:Z=16:X=-40:t=section (e.g., the first note is a perfect breve)	!	!	!	!	!
0.C]	.	[0.c	spe-	0.r	.	0.g	si-
=216.	=216	=216.	=216	=216.	=216	=216.	=216
0.F	.	1.c]	.	0.r	.	0a	.
.	.	[1.d	-ci-	.	.	.	.
.	.	.	.	.	.	1a	-mul
=217	=217	=217	=217	=217	=217	=217	=217
0.D	.	0.d]	.	0.r	.	1.f	ad-
.	.	.	.	.	.	2d/	.
.	.	.	.	.	.	1f	.
=218.	=218	=218.	=218	=218.	=218	=218.	=218
0.C	.	[0.e	.	0.r	.	1e	-o-
.	.	.	.	.	.	0g	-ra-
=219	=219	=219	=219	=219	=219	=219	=219
0.r	.	1.e]	.	0.r	.	1c	-tur
.	.	.	.	.	.	1r	.
.	.	[1.f	-o-	.	.	.	.
.	.	.	.	.	.	1cc	et
=220.	=220	=220.	=220	=220.	=220	=220.	=220
0.r	.	0.f]	.	0.r	.	1dd	con-
.	.	.	.	.	.	2cc\	.
.	.	.	.	.	.	2b\	.
.	.	.	.	.	.	1a	-glo-
=221	=221	=221	=221	=221	=221	=221	=221
0.r	.	[0.e	.	0.r	.	1.g	-ri-
.	.	.	.	.	.	2a/	.
.	.	.	.	.	.	1b	-fi-
=222.	=222	=222.	=222	=222.	=222	=222.	=222
0.r	.	1.e]	.	0.r	.	1cc	-ca-
.	.	.	.	.	.	1b	.
.	.	[1.d	.	.	.	.	.
.	.	.	.	.	.	[1dd	.
=223	=223	=223	=223	=223	=223	=223	=223
0.r	.	0.d]	.	0.r	.	2dd\]	.
.	.	.	.	.	.	2cc\	.
.	.	.	.	.	.	2a/	.
.	.	.	.	.	.	2cc\	.
.	.	.	.	.	.	2b\	.
.	.	.	.	.	.	2a/	.
=224.	=224	=224.	=224	=224.	=224	=224.	=224
0.r	.	[0.c	-sa,	0.r	.	0.cc	-tur:
=225	=225	=225	=225	=225	=225	=225	=225
0.r	.	1.c]	.	0.r	.	1r	.
.	.	.	.	.	.	1r	.
.	.	[1.d	spe-	.	.	.	.
.	.	.	.	.	.	1a	qui
=226.	=226	=226.	=226	=226.	=226	=226.	=226
0.r	.	1.d]	.	0.r	.	1b	.
.	.	.	.	.	.	1a	.
.	.	1.d	-ci-	.	.	.	.
.	.	.	.	.	.	2g/	lo-
.	.	.	.	.	.	2f/	.
=227	=227	=227	=227	=227	=227	=227	=227
0.r	.	1.A	-o-	0.r	.	1e	-cu-
.	.	.	.	.	.	1f	-tus
.	.	1.B-	.	.	.	.	.
.	.	.	.	.	.	[1g	est
=228.	=228	=228.	=228	=228.	=228	=228.	=228
0.r	.	1.c	.	0.r	.	1g]	.
.	.	.	.	.	.	1a	per
.	.	1.d	.	.	.	.	.
.	.	.	.	.	.	[1b	.
=229	=229	=229	=229	=229	=229	=229	=229
0.r	.	1.e	.	0.r	.	1b]	.
.	.	.	.	.	.	1cc	pro-
.	.	1.f	.	.	.	.	.
.	.	.	.	.	.	[1dd	.
=230.	=230	=230.	=230	=230.	=230	=230.	=230
0.r	.	1.g	.	0.r	.	1dd]	.
.	.	.	.	.	.	1ee	-phe-
.	.	1.e	.	.	.	.	.
.	.	.	.	.	.	1cc	.
=231	=231	=231	=231	=231	=231	=231	=231
1.F	spe-	1.f	.	0.r	.	2dd\	.
.	.	.	.	.	.	2cc\	.
.	.	.	.	.	.	2a/	.
1.C	-ci-	1.e	.	.	.	2g/	.
.	.	.	.	.	.	1cc	.
=232.	=232	=232.	=232	=232.	=232	=232.	=232
0.G	-o-	0.d	.	0.r	.	1dd	.
.	.	.	.	.	.	1.b	.
.	.	.	.	.	.	2a/	.
=233	=233	=233	=233	=233	=233	=233	=233
0.Cl	-sa.	0.cl	-sa.	0.r	.	0.ccl	-tas.
!!LO:LB:i:g=z
*rscale:1	*	*rscale:1	*	*	*	*	*
=234||	=234||	=234||	=234||	=234||	=234||	=234||	=234||
*>D	*>D	*>D	*>D	*>D	*>D	*>D	*>D
*clefF4	*	*clefGv2	*	*clefGv2	*	*clefG2	*
*k[]	*	*k[b-]	*	*k[]	*	*k[]	*
*M2/1	*	*M2/1	*	*M2/1	*	*M2/1	*
*met(C)	*	*met(C)	*	*met(C)	*	*met(C)	*
!!section: Et unam sanctam
!!!OMD: Et unam sanctam
1C	Va-	[0c	Va-	1G	Et	1e	Et
1F	.	.	.	1A	u-	1f	u-
=235.	=235	=235.	=235	=235.	=235	=235.	=235
1E	.	0c_	.	0G	-nam	1g	-nam
1C	.	.	.	.	.	1e	san-
=236	=236	=236	=236	=236	=236	=236	=236
1.F	.	0c_	.	0A	san-	2c/	.
.	.	.	.	.	.	1f	.
2E\	.	.	.	.	.	2g/	.
=237.	=237	=237.	=237	=237.	=237	=237.	=237
0C	.	0c]	.	1G	-ctam	1e	-ctam
.	.	.	.	1c	ca-	1g	ca-
=238	=238	=238	=238	=238	=238	=238	=238
1G	.	[0d	.	2.B\	-tho-	1g	-tho-
.	.	.	.	4c\	.	.	.
1F	.	.	.	1A	-li-	1a	-li-
=239.	=239	=239.	=239	=239.	=239	=239.	=239
1G	.	0d]	.	1B	-cam	1g	-cam
1D	.	.	.	2A/	.	2f/	.
.	.	.	.	2r	.	2a/	.
=240	=240	=240	=240	=240	=240	=240	=240
1A	.	[0e	.	1c	et	2r	.
.	.	.	.	.	.	2cc\	et
2G\	.	.	.	2B\	a-	2dd\	a-
[2c\	.	.	.	[2A/	.	[2ee\	.
=241.	=241	=241.	=241	=241.	=241	=241.	=241
4c\]	.	0e]	.	1A]	.	4ee\]	.
4B\	.	.	.	.	.	4dd\	.
2A\	.	.	.	.	.	2cc\	.
1G	.	.	.	1B	-po-	1b	-po-
=242	=242	=242	=242	=242	=242	=242	=242
2F\	.	1.f	.	1c	-sto-	2a/	-sto-
2A\	.	.	.	.	.	2cc\	.
2B\	.	.	.	2d\	.	2b\	.
2c\	.	2e\	.	[2A/	.	[2a/	.
=243.	=243	=243.	=243	=243.	=243	=243.	=243
2F\	.	2d\	.	2A/]	.	4a/]	.
.	.	.	.	.	.	4g/	.
2E\	.	2c\	.	2c\	.	1g	.
1D	.	1d	.	2B\	-li-	.	.
.	.	.	.	2A/	.	2f/	-li-
=244	=244	=244	=244	=244	=244	=244	=244
[0C	-le,	0e	-le,	0c	-cam	1g	-cam
.	.	.	.	.	.	1g	ec-
=245.	=245	=245.	=245	=245.	=245	=245.	=245
0C]	.	0r	.	0c	ec-	1cc	-cle-
.	.	.	.	.	.	1cc	-si-
=246	=246	=246	=246	=246	=246	=246	=246
0r	.	[0g	val-	1.G	-cle-	0b	-am.
.	.	.	.	2A/	.	.	.
=247.	=247	=247.	=247	=247.	=247	=247.	=247
1G	val-	0g]	.	1B	-si-	1r	.
1E	.	.	.	1c	-am.	1g	Con-
=248	=248	=248	=248	=248	=248	=248	=248
0D	.	0f	.	1r	.	1a	-fi-
.	.	.	.	1d	Con-	1b	-te-
=249.	=249	=249.	=249	=249.	=249	=249.	=249
0C	.	0e	-de-	2e\	-fi-	1cc	-or
.	.	.	.	2f\	.	.	.
.	.	.	.	1g	-te-	1cc	u-
=250	=250	=250	=250	=250	=250	=250	=250
[0G	.	[0d	.	1g	-or	1dd	-num
.	.	.	.	[1g	u-	1b	bap-
=251.	=251	=251.	=251	=251.	=251	=251.	=251
0G]	.	0d]	.	2g\]	.	1b	-tis-
.	.	.	.	2f\	.	.	.
.	.	.	.	1d	-num	1g	-ma
=252	=252	=252	=252	=252	=252	=252	=252
1C	-de	[0c	-de-	1e	bap-	2r	.
.	.	.	.	.	.	2g/	in
2.F\	de-	.	.	1f	-tis-	1a	re-
4E\	.	.	.	.	.	.	.
=253.	=253	=253.	=253	=253.	=253	=253.	=253
[0C	.	0c]	.	1e	-ma	1g	-mis-
.	.	.	.	1r	.	2cc\	-si-
.	.	.	.	.	.	[2cc\	-o-
=254	=254	=254	=254	=254	=254	=254	=254
0C]	.	0e	.	2c\	in	4cc\]	.
.	.	.	.	.	.	4b\	.
.	.	.	.	2c\	re-	2a/	.
.	.	.	.	1c	-mis-	1g	-nem
=255.	=255	=255.	=255	=255.	=255	=255.	=255
0D	.	0d	.	1f	-si-	1r	.
.	.	.	.	2.a\	-o-	1f	pec-
.	.	.	.	4g\	.	.	.
=256	=256	=256	=256	=256	=256	=256	=256
1E	-co-	0c	.	1e	-nem	1g	-ca-
[1F	.	.	.	1c	pec-	[1a	-to-
=257.	=257	=257.	=257	=257.	=257	=257.	=257
2F\]	.	0d	-co-	0f	-ca-	2a/]	.
2E\	.	.	.	.	.	2cc\	.
1D	.	.	.	.	.	2b\	.
.	.	.	.	.	.	2a/	.
=258	=258	=258	=258	=258	=258	=258	=258
[0C	-ra,	[0e	-ra,	0g	-to-	1.cc	-rum.
.	.	.	.	.	.	2b\	.
=259.	=259	=259.	=259	=259.	=259	=259.	=259
0C;]	.	0e;]	.	0c;	-rum.	0g;	.
=260	=260	=260	=260	=260	=260	=260	=260
0c	et	[0e	et	0r	.	1g	Et
.	.	.	.	.	.	[1cc	ex-
=261.	=261	=261.	=261	=261.	=261	=261.	=261
0A	.	0e]	.	3%2cV	Et	2cc\]	.
.	.	.	.	.	.	2b\	.
.	.	.	.	3%2c	ex-	.	.
.	.	.	.	.	.	1a	.
.	.	.	.	3%2cZ	-pe-	.	.
=262	=262	=262	=262	=262	=262	=262	=262
0B-	pro	0d	pro	3%4GV	-cto	1.g	-pe-
.	.	.	.	3%2GZ	re-	.	.
.	.	.	.	.	.	2f/	.
=263.	=263	=263.	=263	=263.	=263	=263.	=263
0A	.	[0e	.	3%2cV	-sur-	1a	-cto
.	.	.	.	3%4cZ	-re-	.	.
.	.	.	.	.	.	1a	re-
=264	=264	=264	=264	=264	=264	=264	=264
0G	.	0e]	.	3%2/BV	-cti-	0b	-sur-
.	.	.	.	3%2.B	-o	.	.
.	.	.	.	3A/Z	.	.	.
=265.	=265	=265.	=265	=265.	=265	=265.	=265
0F	no-	0f	no-	3%4cV	nem	0a	-re-
.	.	.	.	3c\	mor-	.	.
.	.	.	.	3d\Z	.	.	.
=266	=266	=266	=266	=266	=266	=266	=266
0c	.	1e	.	3%2eV	-tu-	1g	-cti-
.	.	.	.	3%4gZ	-o-	.	.
.	.	1c	.	.	.	[1cc	-o-
=267.	=267	=267.	=267	=267.	=267	=267.	=267
0G	-bis	0d	.	0g	-rum,	2cc\]	.
.	.	.	.	.	.	2b\	.
.	.	.	.	.	.	2b\	.
.	.	.	.	.	.	2a/	.
=268	=268	=268	=268	=268	=268	=268	=268
0r	.	1c	.	0r	.	2cc\	-nem
.	.	.	.	.	.	2r	.
.	.	2d\	.	.	.	1b	mor-
.	.	[2e\	.	.	.	.	.
=269.	=269	=269.	=269	=269.	=269	=269.	=269
0r	.	2e\]	.	0r	.	2cc\	-tu-
.	.	2f\	.	.	.	1dd	-o-
.	.	1g	.	.	.	.	.
.	.	.	.	.	.	[2ee\	.
=270	=270	=270	=270	=270	=270	=270	=270
0r	.	2c\	.	0r	.	2ee\]	.
.	.	2d\	.	.	.	2ff\	.
.	.	2c\	.	.	.	2ee\	.
.	.	[2f\	.	.	.	[2dd\	.
=271.	=271	=271.	=271	=271.	=271	=271.	=271
0r	.	2f\]	.	0r	.	4dd\]	.
.	.	.	.	.	.	4cc\	.
.	.	2e\	.	.	.	1cc	.
.	.	1d	.	.	.	.	.
.	.	.	.	.	.	2b\	.
=272	=272	=272	=272	=272	=272	=272	=272
[0C	sem-	[0c	-bis	0r	.	[0cc	-rum.
=273.	=273	=273.	=273	=273.	=273	=273.	=273
0C]	.	0c]	.	0e	re-	0cc]	.
=274	=274	=274	=274	=274	=274	=274	=274
0BB	.	0d	sem-	1d	-su-	0r	.
.	.	.	.	1f	-rec-	.	.
=275.	=275	=275.	=275	=275.	=275	=275.	=275
1.C	-per	0c	-per	1e	-ti-	0r	.
.	.	.	.	[1g	-o-	.	.
2D\	.	.	.	.	.	.	.
=276	=276	=276	=276	=276	=276	=276	=276
1E	.	1Bni	.	1g]	.	0r	.
1F	Chri-	[1A	Chri-	1a	.	.	.
=277.	=277	=277.	=277	=277.	=277	=277.	=277
1D	.	1A]	.	1f	-nem	0r	.
1E	.	[1G	.	2e\	mor-	.	.
.	.	.	.	[2g\	.	.	.
=278	=278	=278	=278	=278	=278	=278	=278
0C	.	1G]	.	2g\]	.	0r	.
.	.	.	.	2f\	.	.	.
.	.	[1c	.	1e	-tu-	.	.
=279.	=279	=279.	=279	=279.	=279	=279.	=279
0G	.	1c]	.	1.d	-o-	0r	.
.	.	1Bni	.	.	.	.	.
.	.	.	.	2c\	.	.	.
=280	=280	=280	=280	=280	=280	=280	=280
[0C	-stum	0c	-stum	0e	-rum.	0r	.
=281.	=281	=281.	=281	=281.	=281	=281.	=281
0C]	.	0r	.	0c	.	0cc	Et
=282	=282	=282	=282	=282	=282	=282	=282
0r	.	3%4cV	ex-	0r	.	3%4ccV	vi-
.	.	[3%2dZ	.	.	.	3%2aZ	-tam
=283.	=283	=283.	=283	=283.	=283	=283.	=283
0r	.	3%2d]V	.	0r	.	3%4bV	ven-
.	.	3%4eZ	.	.	.	.	.
.	.	.	.	.	.	[3%2ccZ	-tu-
=284	=284	=284	=284	=284	=284	=284	=284
0r	.	3%4fV	-o-	0r	.	3%2cc]V	.
.	.	.	.	.	.	3%2dd	.
.	.	3%2eZ	.	.	.	3%2ccZ	.
=285.	=285	=285.	=285	=285.	=285	=285.	=285
0r	.	3%2fV	.	0r	.	3%2ddV	.
.	.	3%2.g	.	.	.	3%4eeZ	-ri
.	.	3f\Z	.	.	.	.	.
=286	=286	=286	=286	=286	=286	=286	=286
0r	.	3%4dV	.	0r	.	3%2ffV	se-
.	.	.	.	.	.	3%2dd	.
.	.	[3%2cZ	.	.	.	3%2eeZ	.
=287.	=287	=287.	=287	=287.	=287	=287.	=287
0r	.	3%2c]V	.	0r	.	3%2ccV	.
.	.	3%4fZ	.	.	.	3dd\	.
.	.	.	.	.	.	3cc\	.
.	.	.	.	.	.	3b\	.
.	.	.	.	.	.	3a/Z	.
=288	=288	=288	=288	=288	=288	=288	=288
0r	.	3%4eV	.	0r	.	3%2gV	.
.	.	.	.	.	.	3%2cc	.
.	.	[3%2dZ	.	.	.	3%2ddZ	.
=289.	=289	=289.	=289	=289.	=289	=289.	=289
0r	.	0d]	.	0r	.	3%2aV	.
.	.	.	.	.	.	3%2b	-cu-
.	.	.	.	.	.	3a/	.
.	.	.	.	.	.	3b\Z	.
=290	=290	=290	=290	=290	=290	=290	=290
0r	.	[0c	-ra.	0r	.	[0cc	-li.
=291.	=291	=291.	=291	=291.	=291	=291.	=291
0r	.	0c]	.	0c	Et	0cc]	.
=292	=292	=292	=292	=292	=292	=292	=292
3%4CV	ex-	0r	.	3%4cV	vi-	0r	.
[3%2DZ	.	.	.	3%2AZ	-tam	.	.
=293.	=293	=293.	=293	=293.	=293	=293.	=293
3%2D]V	.	0r	.	3%4BV	ven-	0r	.
3%4EZ	.	.	.	.	.	.	.
.	.	.	.	[3%2cZ	-tu-	.	.
=294	=294	=294	=294	=294	=294	=294	=294
3%4FV	-o-	0r	.	3%2c]V	.	0r	.
.	.	.	.	3%2d	.	.	.
3%2EZ	.	.	.	3%2cZ	.	.	.
=295.	=295	=295.	=295	=295.	=295	=295.	=295
3%2FV	.	0r	.	3%2dV	.	0r	.
3%2.G	.	.	.	3%4eZ	-ri	.	.
3F\Z	.	.	.	.	.	.	.
=296	=296	=296	=296	=296	=296	=296	=296
3%4DV	.	0r	.	3%2fV	se-	0r	.
.	.	.	.	3%2d	.	.	.
[3%2CZ	.	.	.	3%2eZ	.	.	.
=297.	=297	=297.	=297	=297.	=297	=297.	=297
3%2C]V	.	0r	.	3%2cV	.	0r	.
3%4FZ	.	.	.	3d\	.	.	.
.	.	.	.	3c\	.	.	.
.	.	.	.	3B\	.	.	.
.	.	.	.	3A/Z	.	.	.
=298	=298	=298	=298	=298	=298	=298	=298
3%4EV	.	0r	.	3%2GV	.	0r	.
.	.	.	.	3%2c	.	.	.
[3%2DZ	.	.	.	3%2dZ	.	.	.
=299.	=299	=299.	=299	=299.	=299	=299.	=299
0D]	.	0r	.	3%2AV	.	0r	.
.	.	.	.	3%2B	-cu-	.	.
.	.	.	.	3A/	.	.	.
.	.	.	.	3B\Z	.	.	.
=300	=300	=300	=300	=300	=300	=300	=300
0C	-ra.	0r	.	0c	-li.	0r	.
=301.	=301	=301.	=301	=301.	=301	=301.	=301
0r	.	0r	.	0r	.	0r	.
=302	=302	=302	=302	=302	=302	=302	=302
0C; 0c;	A-	0e;	A-	0g;	A-	0cc;	A-
=303.	=303	=303.	=303	=303.	=303	=303.	=303
0G;	.	0d;	.	0g;	.	0b;	.
=304	=304	=304	=304	=304	=304	=304	=304
0C;l	-men.	0c;l	-men.	0e; 0g;l	-men.	0cc;l	-men.
==	==	==	==	==	==	==	==
*-	*-	*-	*-	*-	*-	*-	*-
!!!RDF**kern: l=long note in original notation
!!!RDF**kern: i=editorial accidental
!!!RDF**kern: V=start of tuplet marker
!!!RDF**kern: Z=end of tuplet marker
!!!ENC:	Alejandro Planchart
!!!END:	2014/07/24/
!!!EED:	Alejandro Planchart, Jesse Rodin
!!!EEV:	2014/07/25/
!!!ONB:	Translated from SCORE and edited on 2014/07/25/ by Craig Sapp
!!!SMS: Ed. J. Rodin based on edition by A. Planchart
!!muse2ps: T^@{OPR}^u^@{ONM}{. }@{OTL}^C^@{COM}\n@{SMS}^i2I150v85,85,85,130c110
